static/img/Tg.svg

<svg width="40" height="40" viewBox="0 0 40 40" fill="none" xmlns="http://www.w3.org/2000/svg">
<path d="M20 0C16.0445 0 12.1776 1.17297 8.8886 3.3706C5.59962 5.56822 3.03617 8.69179 1.52242 12.3463C0.00867382 16.0007 -0.387402 20.0222 0.384298 23.9017C1.156 27.7815 3.06082 31.345 5.85787 34.1422C8.65492 36.9392 12.2186 38.844 16.0982 39.6157C19.9777 40.3875 23.9992 39.9912 27.6537 38.4775C31.3082 36.9637 34.4318 34.4005 36.6295 31.1115C38.827 27.8225 40 23.9557 40 20C40 14.6957 37.8928 9.60859 34.1423 5.85787C30.3915 2.10712 25.3043 0 20 0ZM29.825 13.7L26.55 29.175C26.3 30.275 25.65 30.525 24.725 30.025L19.725 26.325L17.225 28.65C17.1073 28.8037 16.956 28.9287 16.7828 29.0155C16.6095 29.102 16.4187 29.148 16.225 29.15L16.575 24.15L25.825 15.775C26.25 15.425 25.825 15.225 25.225 15.575L13.875 22.7L8.875 21.15C7.8 20.825 7.775 20.075 9.1 19.575L28.375 12.075C29.325 11.8 30.125 12.35 29.825 13.7Z" fill="white"/>
</svg>

<svg xmlns="http://www.w3.org/2000/svg" width="40" height="40" fill="none"><path fill="#fff" d="M20 0a20 20 0 1 0 0 40 20 20 0 0 0 0-40m9.825 13.7L26.55 29.175c-.25 1.1-.9 1.35-1.825.85l-5-3.7-2.5 2.325a1.28 1.28 0 0 1-1 .5l.35-5 9.25-8.375c.425-.35 0-.55-.6-.2L13.875 22.7l-5-1.55c-1.075-.325-1.1-1.075.225-1.575l19.275-7.5c.95-.275 1.75.275 1.45 1.625"/></svg>
